ti/document-add.svg

<svg version="1.2" baseProfile="tiny" xmlns="http://www.w3.org/2000/svg" viewBox="0 0 24 24" height="1em" width="1em">
  <path d="M15 12h-2v-2c0-.553-.447-1-1-1s-1 .447-1 1v2h-2c-.553 0-1 .447-1 1s.447 1 1 1h2v2c0 .553.447 1 1 1s1-.447 1-1v-2h2c.553 0 1-.447 1-1s-.447-1-1-1zM19.707 7.293l-4-4c-.187-.188-.441-.293-.707-.293h-8c-1.654 0-3 1.346-3 3v12c0 1.654 1.346 3 3 3h10c1.654 0 3-1.346 3-3v-10c0-.266-.105-.52-.293-.707zm-2.121.707h-1.086c-.827 0-1.5-.673-1.5-1.5v-1.086l2.586 2.586zm-.586 11h-10c-.552 0-1-.448-1-1v-12c0-.552.448-1 1-1h7v1.5c0 1.379 1.121 2.5 2.5 2.5h1.5v9c0 .552-.448 1-1 1z"/>
</svg>

<svg version="1.2" baseProfile="tiny" xmlns="http://www.w3.org/2000/svg" viewBox="0 0 24 24" height="1em" width="1em">
  <path d="M15 12h-2v-2a1 1 0 1 0-2 0v2H9a1 1 0 1 0 0 2h2v2a1 1 0 1 0 2 0v-2h2a1 1 0 1 0 0-2zm4.707-4.707-4-4A.996.996 0 0 0 15 3H7C5.346 3 4 4.346 4 6v12c0 1.654 1.346 3 3 3h10c1.654 0 3-1.346 3-3V8a.996.996 0 0 0-.293-.707zM17.586 8H16.5c-.827 0-1.5-.673-1.5-1.5V5.414L17.586 8zM17 19H7a1 1 0 0 1-1-1V6a1 1 0 0 1 1-1h7v1.5C14 7.879 15.121 9 16.5 9H18v9a1 1 0 0 1-1 1z"/>
</svg>
